!!!COM: Palestrina, Giovanni Perluigi da
!!!OPR: Missa Memor esto
!!!OMD: Benedictus
!!!OTL: Hosanna
**kern	**kern	**kern	**kern	**kern
*Ibass	*Itenor	*Itenor	*Icalto	*Icant
!Bassus	!Tenor 2	!Tenor 1	!Altus	!Cantus
*clefF4	*clefGv2	*clefGv2	*clefG2	*clefG2
*k[b-]	*k[b-]	*k[b-]	*k[b-]	*k[b-]
*G:dor	*G:dor	*G:dor	*G:dor	*G:dor
*M4/2	*M4/2	*M4/2	*M4/2	*M4/2
=37	=37	=37	=37	=37
0r	0r	1r	1r	1dd
.	.	1c	1g	[1ee-
=38	=38	=38	=38	=38
0r	0r	1.g	1.b-	2ee-]
.	.	.	.	2dd
.	.	.	.	2b-
.	.	2f	2a	2cc
=39	=39	=39	=39	=39
0r	0r	2d	2f	2dd
.	.	2e	2g	1cc
.	.	2f	2a	.
.	.	2g	[2g	2b-
=40	=40	=40	=40	=40
1r	2r	1d	2g]	1a
.	2d	.	2f#	.
1C	[1e-	1c	[1g	2r
.	.	.	.	2g
=41	=41	=41	=41	=41
1.G	2e-]	2.B-	1g]	1.b-
.	2d	.	.	.
.	.	4c	.	.
.	2B-	4d	1r	.
.	.	4e	.	.
2F	2c	[2f	.	2a
=42	=42	=42	=42	=42
2D	2d	2f]	0r	2f
2E	1c	2e	.	2g
2F	.	1d	.	2a
2G	2B-	.	.	[2g
=43	=43	=43	=43	=43
1D	1A	0d	1a	2g]
.	.	.	.	2f#
2r	2G	.	[1b-	4g
.	.	.	.	4a
[2G	[2d	.	.	4b-
.	.	.	.	4cc
=44	=44	=44	=44	=44
2G]	2d]	0r	2b-]	1dd
1d	1f	.	2a	.
.	.	.	2f	1r
2c	2e	.	2g	.
=45	=45	=45	=45	=45
2A	2c	0r	2a	0r
2B-	2d	.	1g	.
2c	2e	.	.	.
2d	[2d	.	2f	.
=46	=46	=46	=46	=46
1A	2d]	2r	1e	1ee
.	2c#	1A	.	.
1D	2r	.	2.d	2.ff
.	[2d	[2B-	.	.
.	.	.	4e	4ee
=47	=47	=47	=47	=47
0r	2d]	2B-]	4f	2dd
.	.	.	4g	.
.	1f	2A	1a	2cc
.	.	2F	.	2dd
.	2e	2G	2b-	[2ee
=48	=48	=48	=48	=48
0r	2c	0A	1a	2ee]
.	2d	.	.	1dd
.	1e	.	2r	.
.	.	.	[2a	2cc#
=49	=49	=49	=49	=49
1D	1f	1d	2a]	1dd
.	.	.	2.b-	.
[1E-	1g	1G	.	1b-
.	.	.	4a	.
.	.	.	[2g	.
=50	=50	=50	=50	=50
2E-]	2r	1.B-	2g]	2g
2D	1d	.	2f	2.dd
2BB-	.	.	2g	.
.	.	.	.	4b-
2C	4c	2A	[2a	2ee-
.	4B-	.	.	.
=51	=51	=51	=51	=51
0D	2A	2F#	2a]	0dd
.	2d	2G	1g	.
.	1d	1A	.	.
.	.	.	2f	.
=52	=52	=52	=52	=52
0G	0d	0G	0g	0b
==	==	==	==	==
*-	*-	*-	*-	*-
!!!CDT: 1525/^1526/-1594/2/2
!!!OCY: Italia
!!!AGN: Mass (Parody)
!!!AST: renaissance, vocal
!!!ASW: Motet 1572 (Palestrina)
!!!PWK: Masses, Book 8
!!!RNB: Cadence finals: A,D
!!!YOR: Le Opere Complete, v. 24, p. 86
!!!YOO: Rome, Italy: Fratelli Scalera
!!!END: 1992//
!!!EED: John Miller
!!!YEC: Copyright 2000, John Miller
!!!YEN: United States of America
!!!YEM: Rights to all derivative electronic formats reserved.
!!!YEM: Refer to licensing agreement for further details.
!!!YEM: This file must be accompanied by the licensing agreement.
!!!YEM: A copy of the licensing agreement may be found at http://www.music-cog.ohio-state.edu/HumdrumDatabases/Palestrina/license.txt
!!!EMD: converted to Humdrum by Bret Aarden
